X:423
T: KAISER DER NAPOLEON
N: E0349B
O: Europa, Mitteleuropa, Deutschland; Frankreich, Elsass
R: historisches Lied, Napoleons russischer Feldzug (1812)
M: 2/4
L: 1/16
K: G
 | D2G2G2G2 | F2A2A4 |
A2A2A2A2 | B2d2d4 |
B3BB2B2 | d3cc4 |
A2A2d3c | c4B4

@@@ Tune index: 4073
